modules/feathericon/icons/download.svg

<svg width="10" height="12" viewBox="0 0 10 12" xmlns="http://www.w3.org/2000/svg"><path d="M6 7l2-2 1 1-4 4-4-4 1-1 2 2V0h2v7zm-6 4h10v1H0v-1z" fill="#000" fill-rule="evenodd"/></svg>

<?xml version="1.0" encoding="UTF-8"?>
<svg width="10px" height="12px" viewBox="0 0 10 12" version="1.1" xmlns="http://www.w3.org/2000/svg" xmlns:xlink="http://www.w3.org/1999/xlink">
    <!-- Generator: sketchtool 48.1 (47250) - http://www.bohemiancoding.com/sketch -->
    <title>download</title>
    <desc>Created with sketchtool.</desc>
    <defs></defs>
    <g id="web-app" stroke="none" stroke-width="1" fill="none" fill-rule="evenodd">
        <g id="download" fill="#000000">
            <path d="M6,7 L8,5 L9,6 L5,10 L1,6 L2,5 L4,7 L4,-2.22044605e-16 L6,-2.22044605e-16 L6,7 Z M-4.4408921e-16,11 L10,11 L10,12 L-4.4408921e-16,12 L-4.4408921e-16,11 Z" id="Shape"></path>
        </g>
    </g>
</svg>
